imgs/japan-icon.svg

<svg width="100" height="75" viewBox="0 0 100 75" fill="none" xmlns="http://www.w3.org/2000/svg">
<path d="M99.9974 6.55529V68.9003C99.6008 69.3703 99.4886 69.9238 99.1025 70.446C96.6317 73.7933 92.6294 71.681 89.2976 71.1066C79.1901 69.3598 68.8713 70.0204 58.743 71.2032C56.6192 70.7567 56.4026 67.9812 58.516 67.3546C59.9823 66.9212 63.4523 66.7045 65.1378 66.553C72.631 65.8794 80.9095 65.8402 88.3453 66.976C89.8325 67.2032 94.6123 68.4982 95.6037 68.3128C95.7655 68.2815 96.0942 68.1562 96.0942 68.0178V7.23937C96.0942 6.64146 91.2388 5.77983 90.4665 5.63884C61.9104 0.414267 33.1559 14.4796 4.7537 6.80595C4.52672 6.7459 3.91098 7.12449 3.91098 7.23937V68.023C3.91098 68.1953 4.40931 68.4329 4.59977 68.506C6.1052 69.0857 9.02995 69.5348 10.7102 69.8194C21.0421 71.5609 31.3504 70.8585 41.6771 69.4982C43.0834 69.7541 43.9026 70.9134 43.3417 72.305C42.9112 73.3703 42.105 73.4016 41.0927 73.5713C30.4373 75.3416 15.8996 75.4199 5.43467 72.7567C2.69255 72.0596 0.286996 71.3546 0 68.0308V7.23415C0.0469631 5.09053 1.98549 3.14796 4.0597 2.8947C5.71906 2.69365 9.04039 3.82421 10.9059 4.15058C35.5719 8.4587 60.4101 -1.69018 85.251 0.889466C88.588 1.23673 93.4982 1.93386 96.6395 2.97825C98.492 3.59444 99.4104 4.74588 100 6.55529H99.9974Z" fill="#E9562A"/>
<path d="M48.205 18.1455C63.4288 16.7852 74.4364 32.8662 67.4207 46.5608C60.9241 59.2345 43.1095 60.9264 34.497 49.5347C25.2374 37.2866 32.9576 19.511 48.205 18.1481V18.1455ZM48.5937 22.0541C36.4303 23.1064 30.1398 37.4328 37.6148 47.19C44.1896 55.7749 57.3784 55.1144 63.1653 46.0177C70.1393 35.0542 61.3964 20.9471 48.5937 22.0541Z" fill="#E9562A"/>
<path d="M51.6906 68.9682C53.6083 70.8768 50.5478 73.7358 48.8233 71.741C47.1639 69.8246 49.9895 67.2736 51.6906 68.9682Z" fill="#E9562A"/>
<path d="M48.5937 22.054C61.3989 20.947 70.1419 35.0541 63.1653 46.0176C57.3784 55.1142 44.1896 55.7748 37.6148 47.1899C30.1398 37.4301 36.4302 23.1036 48.5937 22.054Z" fill="#E9562A"/>
</svg>

<?xml version="1.0" encoding="UTF-8"?>
<svg id="_圖層_1" data-name="圖層_1" xmlns="http://www.w3.org/2000/svg" version="1.1" viewBox="0 0 100 75">
  <!-- Generator: Adobe Illustrator 29.5.1, SVG Export Plug-In . SVG Version: 2.1.0 Build 141)  -->
  <defs>
    <style>
      .st0 {
        fill: #e9562a;
      }
    </style>
  </defs>
  <path class="st0" d="M100,6.56v62.35c-.4.47-.51,1.02-.89,1.55-2.47,3.35-6.47,1.24-9.8.66-10.11-1.75-20.43-1.09-30.55.1-2.12-.45-2.34-3.22-.23-3.85,1.47-.43,4.94-.65,6.62-.8,7.49-.67,15.77-.71,23.21.42,1.49.23,6.27,1.52,7.26,1.34.16-.03.49-.16.49-.29V7.24c0-.6-4.86-1.46-5.63-1.6C61.91.41,33.16,14.48,4.75,6.81c-.23-.06-.84.32-.84.43v60.78c0,.17.5.41.69.48,1.51.58,4.43,1.03,6.11,1.31,10.33,1.74,20.64,1.04,30.97-.32,1.41.26,2.23,1.42,1.66,2.81-.43,1.07-1.24,1.1-2.25,1.27-10.66,1.77-25.19,1.85-35.66-.81-2.74-.7-5.15-1.4-5.43-4.73V7.23C.05,5.09,1.99,3.15,4.06,2.89c1.66-.2,4.98.93,6.85,1.26C35.57,8.46,60.41-1.69,85.25.89c3.34.35,8.25,1.04,11.39,2.09,1.85.62,2.77,1.77,3.36,3.58h0Z"/>
  <path class="st0" d="M51.69,68.97c1.92,1.91-1.14,4.77-2.87,2.77-1.66-1.92,1.17-4.47,2.87-2.77Z"/>
  <path class="st0" d="M48.21,18.15h0c-15.25,1.37-22.97,19.14-13.71,31.39,8.61,11.39,26.43,9.7,32.92-2.97,7.02-13.69-3.99-29.78-19.22-28.42Z"/>
</svg>
